icon-themes/breeze_svg/cmd/sc_firstpage.svg

<svg viewBox="0 0 16 16" xmlns="http://www.w3.org/2000/svg">/&gt;<path d="m8 2-.7070312.6992188.0039062.0039062-5.296875 5.2949219v.0019531 1h1.0078125v4h-.0078125v1h10v-1-4h1v-1-.0019531l-1.142578-1.1425781-.701172.7011718.443359.4433594h-.599609v5h-3v-3h-2v3h-3v-4-1h-.5996094l4.5976563-4.5957031.0019531.0019531.0019531-.0019531 1.4414063 1.4394531.7011716-.7011719-1.441406-1.4394531.0039062-.0039062zm3 1v3h1.007812v-3z" fill="#4d4d4d"/></svg>

<svg xmlns="http://www.w3.org/2000/svg" viewBox="0 0 16 16">
     />
 <path 
     style="fill:#4d4d4d" 
     d="M 8 2 L 7.2929688 2.6992188 L 7.296875 2.703125 L 2 7.9980469 L 2 8 L 2 9 L 3.0078125 9 L 3.0078125 13 L 3 13 L 3 14 L 13 14 L 13 13 L 13 9 L 14 9 L 14 8 L 14 7.9980469 L 12.857422 6.8554688 L 12.15625 7.5566406 L 12.599609 8 L 12 8 L 12 13 L 9 13 L 9 10 L 7 10 L 7 13 L 4 13 L 4 9 L 4 8 L 3.4003906 8 L 7.9980469 3.4042969 L 8 3.40625 L 8.0019531 3.4042969 L 9.4433594 4.84375 L 10.144531 4.1425781 L 8.703125 2.703125 L 8.7070312 2.6992188 L 8 2 z M 11 3 L 11 6 L 12.007812 6 L 12.007812 3 L 11 3 z "
     />
 </svg>
